public/illustrations/_balls.svg

<svg width="327" height="240" viewBox="0 0 327 240" fill="none" xmlns="http://www.w3.org/2000/svg">
<path d="M0 82.2789C0.42476 79.0224 0.849519 75.6243 1.41587 72.3678C6.65457 41.7853 23.9281 20.4058 51.8207 7.94624C93.1639 -10.4599 142.861 4.12341 167.072 41.2189C168.63 43.6259 170.045 46.0328 171.603 48.723C172.452 48.4398 173.302 48.2982 174.01 47.8734C189.443 41.502 205.725 37.2545 222.291 35.4139C240.131 33.4317 257.688 34.2812 274.961 39.0951C277.226 39.8031 279.35 40.6526 281.332 41.6437C285.438 43.3427 286.713 46.7408 286.854 50.8468C287.138 64.2974 285.863 77.6065 283.456 90.774C282.607 95.5879 281.474 100.26 280.483 105.074C284.447 105.641 288.412 106.065 292.235 106.915C301.296 108.755 309.508 113.569 315.597 120.649C321.685 127.586 325.224 136.506 325.932 145.709C326.64 156.47 323.101 166.239 316.446 174.734C300.73 194.981 270.006 201.069 248.06 183.654C246.502 182.38 244.945 180.964 243.387 179.548C239.423 183.796 235.742 188.185 231.636 192.15C227.388 196.114 222.716 199.37 218.043 203.052C220.026 209.281 219.884 215.936 217.477 222.024C215.353 227.121 211.53 231.51 206.858 234.342C195.248 241.563 182.647 239.439 169.338 228.254C153.905 234.342 137.764 237.032 121.34 238.307C107.606 239.581 93.8719 239.439 80.138 238.023C73.9082 237.174 67.8199 235.9 61.7317 234.2C59.4663 233.493 57.201 232.36 55.2188 231.086C54.3692 230.519 53.5198 229.811 52.9534 228.962C52.3871 228.112 52.1039 227.121 52.1039 225.989C51.2544 206.875 53.803 187.76 59.8912 169.637C60.1744 168.505 60.599 167.514 61.0238 166.381V165.39C60.0327 164.965 59.0416 164.682 58.0505 164.115C52.1039 161.142 46.1573 158.169 40.2106 155.054C37.9452 153.921 35.6798 152.93 33.4144 151.656C32.2817 150.948 31.4322 150.24 30.5827 149.249C29.1668 147.691 28.0342 145.709 26.6183 144.152C11.6102 129.144 2.54849 111.304 0.991037 89.9245C0.991037 88.9333 0.708002 87.9423 0.424829 86.9512V82.4204L0 82.2789ZM243.954 121.923C238.29 107.623 230.644 94.3136 221.158 82.1372C215.07 84.6858 209.123 86.668 202.61 90.0661C204.309 91.3404 205.867 92.6145 207.283 94.0304C208.274 95.0215 208.84 96.2959 208.84 97.7118C208.84 99.1276 208.274 100.402 207.424 101.393C206.433 102.384 205.159 102.95 203.885 103.092C202.469 103.092 201.195 102.809 200.062 101.959C199.071 101.251 198.221 100.543 197.372 99.6938L191.991 95.1632L173.444 106.915C174.859 108.189 175.851 108.897 176.842 109.888C179.107 112.295 179.532 114.985 177.974 117.251C177.125 118.383 175.85 119.233 174.435 119.516C173.019 119.799 171.603 119.516 170.329 118.666C168.913 117.817 167.497 116.826 166.223 115.693C164.665 114.277 163.391 114.419 161.834 115.693C157.303 119.516 152.772 123.339 148.241 127.162C147.533 127.869 146.825 128.577 146.259 129.427C147.392 130.56 148.383 131.268 149.232 132.259C150.223 133.25 150.79 134.666 150.931 136.082C150.931 137.497 150.507 138.913 149.515 140.046C147.533 142.17 144.56 142.311 141.87 140.329C140.737 139.48 139.463 138.489 138.188 137.356C128.561 147.408 119.641 158.027 111.429 169.354C125.304 185.495 136.065 203.901 143.427 223.865C150.082 223.157 159.993 220.325 163.957 217.918C162.258 204.043 165.798 194.698 175.709 188.893C188.452 181.389 200.487 183.513 211.53 192.999C212.238 192.716 212.805 192.433 213.371 192.008C222.432 186.911 228.945 179.265 235.175 171.053C236.45 169.354 235.883 168.08 235.175 166.381C230.078 153.355 231.777 140.895 238.715 129.144C240.131 126.737 241.83 124.471 243.67 121.923H243.954ZM212.521 73.3589L213.229 72.2262C212.097 71.5183 211.106 70.8103 209.973 70.1024C203.885 64.8637 197.088 60.333 189.868 56.6518C188.735 55.9438 187.602 55.6607 186.328 55.5191C185.054 55.5191 183.779 55.6607 182.647 56.227C140.171 72.9342 107.606 101.251 84.5271 140.471C83.8192 141.603 83.2529 142.878 82.6866 144.01L103.5 160.434L128.277 130.984L126.862 130.277C123.322 128.577 121.906 126.312 122.897 123.48C123.888 120.649 126.72 119.091 130.401 119.799C132.808 120.365 135.074 121.073 137.481 121.781L151.639 109.322C151.356 109.039 151.214 108.614 150.931 108.331C148.1 105.499 147.533 103.658 148.807 101.251C150.082 98.8445 152.63 97.8533 156.17 98.7028C157.869 99.1276 159.568 99.8354 161.409 100.26C162.258 100.543 163.108 100.543 163.816 100.26C168.63 97.0037 173.444 93.6057 178.399 90.2076C177.974 89.7829 177.691 89.3581 177.55 89.2165C174.859 86.668 174.152 84.1194 175.426 81.854C176.842 79.4471 179.532 78.7391 182.93 79.7302C185.337 80.4382 187.461 81.4293 189.868 81.9957C191 82.4204 192.416 82.4204 193.549 81.9957C199.92 79.3055 206.15 76.3322 212.521 73.5005V73.3589ZM131.817 225.422C122.897 198.379 97.4116 164.965 77.7311 155.054C69.3775 167.938 60.7407 207.299 62.8645 222.307C74.333 229.811 120.207 229.103 131.817 225.422ZM252.874 113.994C256.272 112.154 259.67 110.454 263.209 109.18C264.625 108.755 266.041 108.048 267.032 106.915C268.165 105.782 268.873 104.366 269.156 102.95C269.439 101.818 269.864 100.685 270.147 99.5523C273.828 83.9778 276.094 68.2618 275.527 52.2626C275.527 51.5547 275.244 50.7051 275.103 49.9972C251.033 44.0506 225.972 44.1922 201.902 50.422C226.963 65.8549 241.122 88.7919 252.732 113.994H252.874ZM155.32 43.6258C152.347 44.4753 149.232 45.0418 146.117 45.4665C134.366 46.5992 123.322 50.422 112.561 54.8112C107.747 56.7934 102.65 58.3508 97.5532 59.7667C90.0491 62.1736 82.1203 61.6073 74.8993 58.634H73.7666L63.9971 72.0847C78.1557 79.164 88.9163 89.9245 100.81 99.4107C118.083 80.5798 138.613 65.0053 161.409 53.5368C159.285 49.9972 157.303 46.8823 155.32 43.6258ZM308.234 166.523C318.287 155.054 315.597 134.524 306.393 127.445H305.969C305.261 128.011 304.553 128.577 303.845 129.002C298.181 133.533 291.668 136.789 284.731 138.63C281.757 139.621 278.642 139.904 275.669 139.621C267.032 138.347 258.112 137.497 250.891 131.692C240.131 143.302 242.113 164.115 252.449 171.903C269.581 154.771 288.412 154.488 308.234 166.523ZM56.4931 17.8573C39.3611 25.6445 26.7598 37.1129 18.6894 53.2537L54.3693 66.4212C56.0683 64.0143 57.9088 61.4657 59.7495 58.9172C61.5901 56.3686 63.714 53.5369 65.5547 50.9883C65.5547 50.5636 65.2714 50.1389 65.1298 49.7141C61.307 42.918 59.0417 35.5555 58.4753 27.7683C58.0506 24.5118 57.3426 21.2553 56.4931 17.9988V17.8573ZM49.6969 98.5612C56.7762 103.658 62.2981 110.171 64.9883 116.684C67.3952 122.489 69.5189 128.436 71.7843 134.241C72.2091 135.232 72.6339 136.223 73.0586 137.214L93.164 107.481C81.9787 98.278 71.6428 88.0838 57.9089 81.4293L49.6969 98.5612ZM47.7146 76.4738C42.4759 72.7925 19.9637 65.0053 14.1587 64.8637C9.62789 80.7214 10.9022 96.2959 17.4152 112.012C18.4063 110.879 19.1142 110.171 19.8221 109.463C24.6361 103.8 29.8748 98.8445 37.3789 97.0038C38.2284 96.7207 38.9362 96.1542 39.2194 95.3047C42.1927 89.2165 45.0246 82.8452 47.8563 76.4738H47.7146ZM82.545 48.723L83.1113 49.9972C85.943 49.9972 88.7747 49.9972 91.4649 49.5725C97.8363 48.5814 104.066 46.7408 109.871 44.0507C119.641 39.6615 129.835 36.6882 140.454 34.8476C142.294 34.5644 144.135 34.4228 146.967 33.998C145.834 32.8653 144.56 31.7326 143.286 30.7415C137.905 27.0603 132.383 23.5206 127.003 19.8394C123.18 17.1493 119.499 17.8572 115.959 20.2641C110.721 23.6622 105.765 27.2019 100.951 31.1663C94.5799 36.8297 88.7748 42.9179 82.6866 48.723H82.545ZM190.717 227.263C194.257 227.405 197.797 226.555 200.77 224.856C203.46 223.298 205.442 220.892 206.716 218.06C207.991 215.228 208.416 212.113 207.849 209.14C206.292 200.928 197.655 194.132 187.461 195.831C184.487 196.255 181.656 197.53 179.532 199.512C177.408 201.494 175.709 204.043 175.001 207.016C173.302 213.246 175.284 218.343 179.815 222.591C182.788 225.422 186.753 227.121 190.859 227.404L190.717 227.263ZM64.8467 154.629C65.5547 153.921 66.121 152.93 66.2626 151.939C66.2626 150.948 66.2626 149.815 65.5547 148.966C64.422 146.559 63.2892 144.01 62.4396 141.462C59.8911 134.666 57.3425 127.728 54.6524 120.932C52.9533 116.543 48.7058 111.729 45.7325 110.313C45.1662 112.578 44.4581 114.702 44.1749 116.967C43.0422 124.33 41.7681 131.692 40.777 138.913C40.6354 140.188 40.3522 141.745 41.768 142.736C48.7058 147.975 56.4931 151.939 64.8467 154.629ZM73.9081 41.9269C83.8192 31.0247 93.8719 21.1137 106.19 13.1848C95.8541 9.78678 73.2002 11.0611 67.3952 14.8839C70.2269 23.3791 69.2359 32.8653 74.0499 42.0684L73.9081 41.9269ZM261.652 178.982C274.253 184.929 294.075 182.38 299.739 174.451C285.014 165.531 270.147 169.071 261.652 178.982ZM259.387 123.622C268.731 131.409 288.695 129.427 296.341 120.224C286.571 114.56 270.43 115.976 259.387 123.622ZM30.158 132.117L34.1223 110.738C29.5916 114.419 26.9014 118.383 24.0697 122.206C23.9281 122.489 23.9282 122.914 23.9282 123.339C23.9282 123.764 24.0697 124.047 24.2113 124.33C26.0519 126.878 27.8926 129.144 30.158 132.259V132.117Z" fill="#102185"/>
</svg>

<svg xmlns="http://www.w3.org/2000/svg" width="327" height="240" fill="none" viewBox="0 0 327 240"><path fill="#102185" d="M0 82.279c.425-3.257.85-6.655 1.416-9.911C6.655 41.785 23.928 20.406 51.82 7.946 93.164-10.46 142.86 4.123 167.072 41.22c1.558 2.407 2.973 4.814 4.531 7.504.849-.283 1.699-.425 2.407-.85 15.433-6.371 31.715-10.618 48.281-12.46 17.84-1.981 35.397-1.132 52.67 3.682a43 43 0 0 1 6.371 2.549c4.106 1.699 5.381 5.097 5.522 9.203.284 13.45-.991 26.76-3.398 39.927-.849 4.814-1.982 9.486-2.973 14.3 3.964.567 7.929.991 11.752 1.841 9.061 1.84 17.273 6.654 23.362 13.734 6.088 6.937 9.627 15.857 10.335 25.06.708 10.761-2.831 20.53-9.486 29.025-15.716 20.247-46.44 26.335-68.386 8.92-1.558-1.274-3.115-2.69-4.673-4.106-3.964 4.248-7.645 8.637-11.751 12.602-4.248 3.964-8.92 7.22-13.593 10.902 1.983 6.229 1.841 12.884-.566 18.972-2.124 5.097-5.947 9.486-10.619 12.318-11.61 7.221-24.211 5.097-37.52-6.088-15.433 6.088-31.574 8.778-47.998 10.053-13.734 1.274-27.468 1.132-41.202-.284a137 137 0 0 1-18.406-3.823c-2.266-.707-4.531-1.84-6.513-3.114-.85-.567-1.7-1.275-2.266-2.124q-.85-1.275-.85-2.973c-.849-19.114 1.7-38.229 7.788-56.352.283-1.132.708-2.123 1.133-3.256v-.991c-.991-.425-1.982-.708-2.974-1.275-5.946-2.973-11.893-5.946-17.84-9.061-2.265-1.133-4.53-2.124-6.796-3.398-1.132-.708-1.982-1.416-2.831-2.407-1.416-1.558-2.549-3.54-3.965-5.097C11.61 129.144 2.548 111.304.991 89.925c0-.992-.283-1.983-.566-2.974v-4.53zm243.954 39.644c-5.664-14.3-13.31-27.61-22.796-39.786-6.088 2.549-12.035 4.531-18.548 7.93 1.699 1.273 3.257 2.548 4.673 3.963.991.992 1.557 2.266 1.557 3.682s-.566 2.69-1.416 3.681a5.95 5.95 0 0 1-3.539 1.699c-1.416 0-2.69-.283-3.823-1.133a20.7 20.7 0 0 1-2.69-2.265l-5.381-4.53-18.547 11.751c1.415 1.274 2.407 1.982 3.398 2.973 2.265 2.407 2.69 5.097 1.132 7.363-.849 1.132-2.124 1.982-3.539 2.265s-2.832 0-4.106-.85c-1.416-.849-2.832-1.84-4.106-2.973-1.558-1.416-2.832-1.274-4.389 0l-13.593 11.469c-.708.707-1.416 1.415-1.982 2.265 1.133 1.133 2.124 1.841 2.973 2.832.991.991 1.558 2.407 1.699 3.823 0 1.415-.424 2.831-1.416 3.964-1.982 2.124-4.955 2.265-7.645.283a57 57 0 0 1-3.682-2.973c-9.627 10.052-18.547 20.671-26.759 31.998 13.875 16.141 24.636 34.547 31.998 54.511 6.655-.708 16.566-3.54 20.53-5.947-1.699-13.875 1.841-23.22 11.752-29.025 12.743-7.504 24.778-5.38 35.821 4.106.708-.283 1.275-.566 1.841-.991 9.061-5.097 15.574-12.743 21.804-20.955 1.275-1.699.708-2.973 0-4.672-5.097-13.026-3.398-25.486 3.54-37.237 1.416-2.407 3.115-4.673 4.955-7.221zm-31.433-48.564.708-1.133c-1.132-.708-2.123-1.416-3.256-2.124-6.088-5.238-12.885-9.769-20.105-13.45-1.133-.708-2.266-.991-3.54-1.133-1.274 0-2.549.142-3.681.708-42.476 16.707-75.041 45.024-98.12 84.244-.708 1.132-1.274 2.407-1.84 3.539l20.813 16.424 24.777-29.45-1.415-.707c-3.54-1.7-4.956-3.965-3.965-6.797s3.823-4.389 7.504-3.681c2.407.566 4.673 1.274 7.08 1.982l14.158-12.459c-.283-.283-.425-.708-.708-.991-2.831-2.832-3.398-4.673-2.124-7.08s3.823-3.398 7.363-2.548c1.699.425 3.398 1.132 5.239 1.557.849.283 1.699.283 2.407 0 4.814-3.256 9.628-6.654 14.583-10.052-.425-.425-.708-.85-.849-.992-2.691-2.548-3.398-5.097-2.124-7.362 1.416-2.407 4.106-3.115 7.504-2.124 2.407.708 4.531 1.7 6.938 2.266 1.132.424 2.548.424 3.681 0 6.371-2.69 12.601-5.664 18.972-8.495zm-80.704 152.063c-8.92-27.043-34.405-60.457-54.086-70.368-8.353 12.884-16.99 52.245-14.866 67.253 11.468 7.504 57.342 6.796 68.952 3.115m121.057-111.428c3.398-1.84 6.796-3.54 10.335-4.814 1.416-.425 2.832-1.132 3.823-2.265a7.8 7.8 0 0 0 2.124-3.965c.283-1.132.708-2.265.991-3.398 3.681-15.574 5.947-31.29 5.38-47.29 0-.707-.283-1.557-.424-2.265-24.07-5.946-49.131-5.805-73.201.425 25.061 15.433 39.22 38.37 50.83 63.572zM155.32 43.626c-2.973.85-6.088 1.416-9.203 1.84-11.751 1.133-22.795 4.956-33.556 9.345-4.814 1.982-9.911 3.54-15.008 4.956-7.504 2.407-15.433 1.84-22.654-1.133h-1.132l-9.77 13.45c14.159 7.08 24.92 17.84 36.813 27.327 17.273-18.831 37.803-34.406 60.599-45.874-2.124-3.54-4.106-6.655-6.089-9.911m152.914 122.897c10.053-11.469 7.363-31.999-1.841-39.078h-.424c-.708.566-1.416 1.132-2.124 1.557a51.9 51.9 0 0 1-19.114 9.628c-2.974.991-6.089 1.274-9.062.991-8.637-1.274-17.557-2.124-24.778-7.929-10.76 11.61-8.778 32.423 1.558 40.211 17.132-17.132 35.963-17.415 55.785-5.38M56.494 17.857C39.36 25.645 26.76 37.113 18.688 53.254L54.37 66.42a870 870 0 0 1 5.38-7.504c1.841-2.548 3.965-5.38 5.806-7.929 0-.424-.284-.85-.425-1.274-3.823-6.796-6.088-14.158-6.655-21.946-.424-3.256-1.132-6.513-1.982-9.77zm-6.797 80.704c7.08 5.097 12.601 11.61 15.291 18.123 2.407 5.805 4.53 11.752 6.796 17.557l1.275 2.973 20.105-29.733c-11.185-9.203-21.521-19.397-35.255-26.052zm-1.982-22.087c-5.24-3.681-27.751-11.469-33.556-11.61-4.531 15.857-3.257 31.432 3.256 47.148.991-1.133 1.7-1.841 2.407-2.549 4.814-5.663 10.053-10.618 17.557-12.46.85-.282 1.557-.849 1.84-1.698 2.974-6.089 5.806-12.46 8.637-18.831zm34.83-27.751.566 1.274c2.832 0 5.664 0 8.354-.425 6.371-.99 12.601-2.831 18.406-5.521 9.77-4.39 19.964-7.363 30.583-9.203 1.84-.284 3.681-.425 6.513-.85a40 40 0 0 0-3.681-3.256c-5.381-3.682-10.903-7.221-16.283-10.903-3.823-2.69-7.504-1.982-11.044.425-5.238 3.398-10.194 6.938-15.008 10.902-6.371 5.664-12.176 11.752-18.264 17.557zm108.172 178.54c3.54.142 7.08-.708 10.053-2.407 2.69-1.558 4.672-3.964 5.946-6.796s1.7-5.947 1.133-8.92c-1.557-8.212-10.194-15.008-20.388-13.309-2.974.424-5.805 1.699-7.929 3.681s-3.823 4.531-4.531 7.504c-1.699 6.23.283 11.327 4.814 15.575 2.973 2.831 6.938 4.53 11.044 4.813zm-125.87-72.634c.708-.708 1.274-1.699 1.416-2.69 0-.991 0-2.124-.708-2.973-1.133-2.407-2.266-4.956-3.115-7.504-2.549-6.796-5.097-13.734-7.788-20.53-1.699-4.389-5.946-9.203-8.92-10.619-.566 2.265-1.274 4.389-1.557 6.654-1.133 7.363-2.407 14.725-3.398 21.946-.142 1.275-.425 2.832.991 3.823 6.938 5.239 14.725 9.203 23.079 11.893m9.061-112.702c9.911-10.902 19.964-20.813 32.282-28.742-10.336-3.398-32.99-2.124-38.795 1.699 2.832 8.495 1.84 17.981 6.655 27.184zm187.744 137.055c12.601 5.947 32.423 3.398 38.087-4.531-14.725-8.92-29.592-5.38-38.087 4.531m-2.265-55.36c9.344 7.787 29.308 5.805 36.954-3.398-9.77-5.664-25.911-4.248-36.954 3.398m-229.229 8.495 3.964-21.379c-4.53 3.681-7.22 7.645-10.052 11.468-.142.283-.142.708-.142 1.133s.142.708.283.991c1.84 2.548 3.682 4.814 5.947 7.929z"/></svg>
